X:676
T: ICH WEISS EINE EWIGE SPINNERIN
N: E2069
O: Europa, Mitteleuropa, Deutschland, Hessen, Taunus, Niederreifenberg
R: geistlich, Marien - Lied, Legende
M: 6/8
L: 1/16
K: G
D2 | G2G2G2B2G2B2 | d4d2B4
c2 | d2d2d2e2d2c2 | B6z4
d2 | d2B2d2d2B2G2 | e6d4
c2 | B3BB2A2B2A2 | G6z4
GB | d4d2c4c2 | B4B2A4
AA | B3BB2c2d2e2 | d6-d2z2
d2 | d2B2d2d2B2G2 | e6d4
c2 | B3BB2A2B2A2 | G6z4

@@@ Tune index: 5360
